world_stage/static/flags/rect/tjk.svg

<svg height="800" viewBox="0 0 1200.6667 800" width="1200.6667" xmlns="http://www.w3.org/2000/svg" xmlns:xlink="http://www.w3.org/1999/xlink"><clipPath id="a"><path d="m0 600h900.5v-600h-900.5z" transform="translate(-428.00001 -307.97121)"/></clipPath><clipPath id="b"><path d="m0 600h900.5v-600h-900.5z" transform="translate(-433.74271 -319.15721)"/></clipPath><clipPath id="c"><path d="m0 600h900.5v-600h-900.5z" transform="translate(-447.97121 -277.17681)"/></clipPath><clipPath id="d"><path d="m0 600h900.5v-600h-900.5z" transform="translate(-456.02831 -277.17681)"/></clipPath><clipPath id="e"><path d="m0 600h900.5v-600h-900.5z" transform="translate(-416.72021 -221.73441)"/></clipPath><clipPath id="f"><path d="m0 600h900.5v-600h-900.5z" transform="translate(-467.80471 -223.33011)"/></clipPath><clipPath id="g"><path d="m0 600h900.5v-600h-900.5z" transform="translate(-518.46682 -216.58791)"/></clipPath><clipPath id="h"><path d="m0 600h900.5v-600h-900.5z" transform="translate(-368.85691 -190.2861)"/></clipPath><clipPath id="i"><path d="m0 600h900.5v-600h-900.5z" transform="translate(-452.00001 -415.71441)"/></clipPath><clipPath id="j"><path d="m0 600h900.5v-600h-900.5z" transform="translate(-392.00001 -399.63721)"/></clipPath><clipPath id="k"><path d="m0 600h900.5v-600h-900.5z" transform="translate(-348.07711 -355.71441)"/></clipPath><clipPath id="l"><path d="m0 600h900.5v-600h-900.5z" transform="translate(-332.00001 -295.71391)"/></clipPath><clipPath id="m"><path d="m0 600h900.5v-600h-900.5z" transform="translate(-512.00002 -399.63721)"/></clipPath><clipPath id="n"><path d="m0 600h900.5v-600h-900.5z" transform="translate(-555.92291 -355.71441)"/></clipPath><clipPath id="o"><path d="m0 600h900.5v-600h-900.5z" transform="translate(-572.00002 -295.71391)"/></clipPath><path d="m0 0h900.5v600h-900.5z" fill="#060" transform="matrix(1.3333333 0 0 -1.3333333 0 800)"/><path d="m0 171.428h900.5v428.572h-900.5z" fill="#fff" transform="matrix(1.3333333 0 0 -1.3333333 0 800)"/><path d="m0 428.571h900.5v171.429h-900.5z" fill="#c00" transform="matrix(1.3333333 0 0 -1.3333333 0 800)"/><path clip-path="url(#a)" d="m0 0c2.975 5.116 9.533 6.851 14.648 3.876 3.198-1.859 5.21-5.236 5.323-8.933v-42.857h8.057v42.857c.182 5.914 5.124 10.562 11.038 10.381 3.698-.114 7.075-2.126 8.934-5.324 4.396 13.255-2.785 27.564-16.04 31.96-13.254 4.397-27.564-2.784-31.96-16.039-1.714-5.169-1.714-10.753 0-15.921" fill="#f8c300" transform="matrix(1.3333333 0 0 -1.3333333 570.66667 389.37173)"/><path clip-path="url(#b)" d="m0 0c7.212 1.474 14.56-1.82 18.257-8.186 3.698 6.366 11.045 9.66 18.257 8.186-1.385 10.083-10.681 17.134-20.764 15.749-8.188-1.124-14.625-7.562-15.75-15.749" fill="#fff" transform="matrix(1.3333333 0 0 -1.3333333 578.3236 374.45707)"/><g fill="#f8c300"><path clip-path="url(#c)" d="m0 0c-1.609-17.916-17.437-31.137-35.354-29.527-7.246.651-14.064 3.708-19.37 8.685-6.92-17.371-26.612-25.844-43.984-18.924-2.557 1.02-4.98 2.346-7.217 3.953 3.129-31.223 49.931-24.849 53.418 5.509 14.703-25.812 47.033-18.42 56.494 13.2z" transform="matrix(1.3333333 0 0 -1.3333333 597.29493 430.43093)"/><path clip-path="url(#d)" d="m0 0c1.609-17.916 17.438-31.137 35.354-29.527 7.246.651 14.065 3.708 19.371 8.685 6.92-17.371 26.612-25.844 43.983-18.924 2.558 1.02 4.981 2.346 7.217 3.953-3.128-31.223-49.93-24.849-53.417 5.509-14.703-25.812-47.034-18.42-56.494 13.2z" transform="matrix(1.3333333 0 0 -1.3333333 608.03773 430.43093)"/><path clip-path="url(#e)" d="m0 0c-6.53-14.097-19.582-16.519-30.998-5.139 0 0 4.589 3.243 9.502 4.137-.921 3.921.968 9.344 3.631 12.277 2.792-1.908 6.689-5.733 7.679-10.177 6.883.89 10.186-1.099 10.186-1.099z" transform="matrix(1.3333333 0 0 -1.3333333 555.62693 504.35413)"/><path clip-path="url(#f)" d="m0 0c-8.738-12.845-22.01-13.109-31.421-.023 0 0 5.056 2.452 10.049 2.534-.271 4.018 2.476 9.062 5.581 11.523 2.444-2.338 5.666-6.746 5.92-11.293 6.935-.241 9.871-2.741 9.871-2.741" transform="matrix(1.3333333 0 0 -1.3333333 623.7396 502.22653)"/><path clip-path="url(#g)" d="m0 0c-10.712-11.251-23.85-9.352-31.005 5.093 0 0 5.388 1.595 10.327.864.388 4.009 3.919 8.538 7.383 10.46 2.031-2.704 4.492-7.578 4.003-12.105 6.803-1.368 9.292-4.313 9.292-4.313z" transform="matrix(1.3333333 0 0 -1.3333333 691.28907 511.21613)"/></g><path clip-path="url(#h)" d="m0 0c54.252 16.148 112.034 16.148 166.286 0" fill="none" stroke="#f8c300" stroke-width="16" transform="matrix(1.3333333 0 0 -1.3333333 491.8092 546.2852)"/><g fill="#f8c300"><path clip-path="url(#i)" d="m0 0 12.596-38.765-32.976 23.958h40.76l-32.975-23.958z" transform="matrix(1.3333333 0 0 -1.3333333 602.66667 245.71413)"/><path clip-path="url(#j)" d="m0 0 12.595-38.765-32.975 23.958h40.76l-32.975-23.958z" transform="matrix(1.3333333 0 0 -1.3333333 522.66667 267.1504)"/><path clip-path="url(#k)" d="m0 0 12.595-38.765-32.975 23.958h40.759l-32.975-23.958z" transform="matrix(1.3333333 0 0 -1.3333333 464.1028 325.71413)"/><path clip-path="url(#l)" d="m0 0 12.595-38.765-32.975 23.958h40.76l-32.975-23.958z" transform="matrix(1.3333333 0 0 -1.3333333 442.66667 405.7148)"/><path clip-path="url(#m)" d="m0 0-12.596-38.765 32.976 23.958h-40.76l32.976-23.958z" transform="matrix(1.3333333 0 0 -1.3333333 682.66667 267.1504)"/><path clip-path="url(#n)" d="m0 0-12.595-38.765 32.975 23.958h-40.76l32.976-23.958z" transform="matrix(1.3333333 0 0 -1.3333333 741.23053 325.71413)"/><path clip-path="url(#o)" d="m0 0-12.596-38.765 32.976 23.958h-40.76l32.976-23.958z" transform="matrix(1.3333333 0 0 -1.3333333 762.66667 405.7148)"/></g></svg>

<?xml version="1.0" encoding="UTF-8" standalone="no"?>
<!-- Created with Inkscape (http://www.inkscape.org/) -->

<svg
   version="1.1"
   id="svg1"
   width="1200.6667"
   height="800"
   viewBox="0 0 1200.6667 800"
   sodipodi:docname="tj.ai"
   xmlns:inkscape="http://www.inkscape.org/namespaces/inkscape"
   xmlns:sodipodi="http://sodipodi.sourceforge.net/DTD/sodipodi-0.dtd"
   xmlns="http://www.w3.org/2000/svg"
   xmlns:svg="http://www.w3.org/2000/svg">
  <defs
     id="defs1">
    <clipPath
       clipPathUnits="userSpaceOnUse"
       id="clipPath5">
      <path
         d="M 0,600 H 900.5 V 0 H 0 Z"
         transform="translate(-428.00001,-307.97121)"
         id="path5" />
    </clipPath>
    <clipPath
       clipPathUnits="userSpaceOnUse"
       id="clipPath7">
      <path
         d="M 0,600 H 900.5 V 0 H 0 Z"
         transform="translate(-433.74271,-319.15721)"
         id="path7" />
    </clipPath>
    <clipPath
       clipPathUnits="userSpaceOnUse"
       id="clipPath9">
      <path
         d="M 0,600 H 900.5 V 0 H 0 Z"
         transform="translate(-447.97121,-277.17681)"
         id="path9" />
    </clipPath>
    <clipPath
       clipPathUnits="userSpaceOnUse"
       id="clipPath11">
      <path
         d="M 0,600 H 900.5 V 0 H 0 Z"
         transform="translate(-456.02831,-277.17681)"
         id="path11" />
    </clipPath>
    <clipPath
       clipPathUnits="userSpaceOnUse"
       id="clipPath13">
      <path
         d="M 0,600 H 900.5 V 0 H 0 Z"
         transform="translate(-416.72021,-221.73441)"
         id="path13" />
    </clipPath>
    <clipPath
       clipPathUnits="userSpaceOnUse"
       id="clipPath15">
      <path
         d="M 0,600 H 900.5 V 0 H 0 Z"
         transform="translate(-467.80471,-223.33011)"
         id="path15" />
    </clipPath>
    <clipPath
       clipPathUnits="userSpaceOnUse"
       id="clipPath17">
      <path
         d="M 0,600 H 900.5 V 0 H 0 Z"
         transform="translate(-518.46682,-216.58791)"
         id="path17" />
    </clipPath>
    <clipPath
       clipPathUnits="userSpaceOnUse"
       id="clipPath19">
      <path
         d="M 0,600 H 900.5 V 0 H 0 Z"
         transform="translate(-368.85691,-190.2861)"
         id="path19" />
    </clipPath>
    <clipPath
       clipPathUnits="userSpaceOnUse"
       id="clipPath21">
      <path
         d="M 0,600 H 900.5 V 0 H 0 Z"
         transform="translate(-452.00001,-415.71441)"
         id="path21" />
    </clipPath>
    <clipPath
       clipPathUnits="userSpaceOnUse"
       id="clipPath23">
      <path
         d="M 0,600 H 900.5 V 0 H 0 Z"
         transform="translate(-392.00001,-399.63721)"
         id="path23" />
    </clipPath>
    <clipPath
       clipPathUnits="userSpaceOnUse"
       id="clipPath25">
      <path
         d="M 0,600 H 900.5 V 0 H 0 Z"
         transform="translate(-348.07711,-355.71441)"
         id="path25" />
    </clipPath>
    <clipPath
       clipPathUnits="userSpaceOnUse"
       id="clipPath27">
      <path
         d="M 0,600 H 900.5 V 0 H 0 Z"
         transform="translate(-332.00001,-295.71391)"
         id="path27" />
    </clipPath>
    <clipPath
       clipPathUnits="userSpaceOnUse"
       id="clipPath29">
      <path
         d="M 0,600 H 900.5 V 0 H 0 Z"
         transform="translate(-512.00002,-399.63721)"
         id="path29" />
    </clipPath>
    <clipPath
       clipPathUnits="userSpaceOnUse"
       id="clipPath31">
      <path
         d="M 0,600 H 900.5 V 0 H 0 Z"
         transform="translate(-555.92291,-355.71441)"
         id="path31" />
    </clipPath>
    <clipPath
       clipPathUnits="userSpaceOnUse"
       id="clipPath33">
      <path
         d="M 0,600 H 900.5 V 0 H 0 Z"
         transform="translate(-572.00002,-295.71391)"
         id="path33" />
    </clipPath>
  </defs>
  <sodipodi:namedview
     id="namedview1"
     pagecolor="#ffffff"
     bordercolor="#000000"
     borderopacity="0.25"
     inkscape:showpageshadow="2"
     inkscape:pageopacity="0.0"
     inkscape:pagecheckerboard="0"
     inkscape:deskcolor="#d1d1d1">
    <inkscape:page
       x="0"
       y="0"
       inkscape:label="1"
       id="page1"
       width="1200.6667"
       height="800"
       margin="0"
       bleed="0" />
  </sodipodi:namedview>
  <g
     id="layer-MC0"
     inkscape:groupmode="layer"
     inkscape:label="Layer 1">
    <path
       id="path1"
       d="M 0,0 H 900.5 V 600 H 0 Z"
       style="fill:#006600;fill-opacity:1;fill-rule:nonzero;stroke:none"
       transform="matrix(1.3333333,0,0,-1.3333333,0,800)" />
    <path
       id="path2"
       d="M 0,171.428 H 900.5 V 600 H 0 Z"
       style="fill:#ffffff;fill-opacity:1;fill-rule:nonzero;stroke:none"
       transform="matrix(1.3333333,0,0,-1.3333333,0,800)" />
    <path
       id="path3"
       d="M 0,428.571 H 900.5 V 600 H 0 Z"
       style="fill:#cc0000;fill-opacity:1;fill-rule:nonzero;stroke:none"
       transform="matrix(1.3333333,0,0,-1.3333333,0,800)" />
    <path
       id="path4"
       d="m 0,0 c 2.975,5.116 9.533,6.851 14.648,3.876 3.198,-1.859 5.21,-5.236 5.323,-8.933 v -42.857 h 8.057 V -5.057 C 28.21,0.857 33.152,5.505 39.066,5.324 42.764,5.21 46.141,3.198 48,0 52.396,13.255 45.215,27.564 31.96,31.96 18.706,36.357 4.396,29.176 0,15.921 -1.714,10.752 -1.714,5.168 0,0"
       style="fill:#f8c300;fill-opacity:1;fill-rule:nonzero;stroke:none"
       transform="matrix(1.3333333,0,0,-1.3333333,570.66667,389.37173)"
       clip-path="url(#clipPath5)" />
    <path
       id="path6"
       d="M 0,0 C 7.212,1.474 14.56,-1.82 18.257,-8.186 21.955,-1.82 29.302,1.474 36.514,0 35.129,10.083 25.833,17.134 15.75,15.749 7.562,14.625 1.125,8.187 0,0"
       style="fill:#ffffff;fill-opacity:1;fill-rule:nonzero;stroke:none"
       transform="matrix(1.3333333,0,0,-1.3333333,578.3236,374.45707)"
       clip-path="url(#clipPath7)" />
    <path
       id="path8"
       d="m 0,0 c -1.609,-17.916 -17.437,-31.137 -35.354,-29.527 -7.246,0.651 -14.064,3.708 -19.37,8.685 -6.92,-17.371 -26.612,-25.844 -43.984,-18.924 -2.557,1.02 -4.98,2.346 -7.217,3.953 3.129,-31.223 49.931,-24.849 53.418,5.509 14.703,-25.812 47.033,-18.42 56.494,13.2 z"
       style="fill:#f8c300;fill-opacity:1;fill-rule:nonzero;stroke:none"
       transform="matrix(1.3333333,0,0,-1.3333333,597.29493,430.43093)"
       clip-path="url(#clipPath9)" />
    <path
       id="path10"
       d="m 0,0 c 1.609,-17.916 17.438,-31.137 35.354,-29.527 7.246,0.651 14.065,3.708 19.371,8.685 6.92,-17.371 26.612,-25.844 43.983,-18.924 2.558,1.02 4.981,2.346 7.217,3.953 -3.128,-31.223 -49.93,-24.849 -53.417,5.509 -14.703,-25.812 -47.034,-18.42 -56.494,13.2 z"
       style="fill:#f8c300;fill-opacity:1;fill-rule:nonzero;stroke:none"
       transform="matrix(1.3333333,0,0,-1.3333333,608.03773,430.43093)"
       clip-path="url(#clipPath11)" />
    <path
       id="path12"
       d="m 0,0 c -6.53,-14.097 -19.582,-16.519 -30.998,-5.139 0,0 4.589,3.243 9.502,4.137 -0.921,3.921 0.968,9.344 3.631,12.277 2.792,-1.908 6.689,-5.733 7.679,-10.177 C -3.303,1.988 0,-0.001 0,-0.001 Z"
       style="fill:#f8c300;fill-opacity:1;fill-rule:nonzero;stroke:none"
       transform="matrix(1.3333333,0,0,-1.3333333,555.62693,504.35413)"
       clip-path="url(#clipPath13)" />
    <path
       id="path14"
       d="m 0,0 c -8.738,-12.845 -22.01,-13.109 -31.421,-0.023 0,0 5.056,2.452 10.049,2.534 -0.271,4.018 2.476,9.062 5.581,11.523 2.444,-2.338 5.666,-6.746 5.92,-11.293 C -2.936,2.5 0,0 0,0"
       style="fill:#f8c300;fill-opacity:1;fill-rule:nonzero;stroke:none"
       transform="matrix(1.3333333,0,0,-1.3333333,623.7396,502.22653)"
       clip-path="url(#clipPath15)" />
    <path
       id="path16"
       d="m 0,0 c -10.712,-11.251 -23.85,-9.352 -31.005,5.093 0,0 5.388,1.595 10.327,0.864 0.388,4.009 3.919,8.538 7.383,10.46 2.031,-2.704 4.492,-7.578 4.003,-12.105 C -2.489,2.944 0,-0.001 0,-0.001 Z"
       style="fill:#f8c300;fill-opacity:1;fill-rule:nonzero;stroke:none"
       transform="matrix(1.3333333,0,0,-1.3333333,691.28907,511.21613)"
       clip-path="url(#clipPath17)" />
    <path
       id="path18"
       d="M 0,0 C 54.252,16.148 112.034,16.148 166.286,0"
       style="fill:none;stroke:#f8c300;stroke-width:16;stroke-linecap:butt;stroke-linejoin:miter;stroke-miterlimit:4;stroke-dasharray:none;stroke-opacity:1"
       transform="matrix(1.3333333,0,0,-1.3333333,491.8092,546.2852)"
       clip-path="url(#clipPath19)" />
    <path
       id="path20"
       d="M 0,0 12.596,-38.765 -20.38,-14.807 H 20.38 L -12.595,-38.765 Z"
       style="fill:#f8c300;fill-opacity:1;fill-rule:nonzero;stroke:none"
       transform="matrix(1.3333333,0,0,-1.3333333,602.66667,245.71413)"
       clip-path="url(#clipPath21)" />
    <path
       id="path22"
       d="M 0,0 12.595,-38.765 -20.38,-14.807 H 20.38 L -12.595,-38.765 Z"
       style="fill:#f8c300;fill-opacity:1;fill-rule:nonzero;stroke:none"
       transform="matrix(1.3333333,0,0,-1.3333333,522.66667,267.1504)"
       clip-path="url(#clipPath23)" />
    <path
       id="path24"
       d="M 0,0 12.595,-38.765 -20.38,-14.807 H 20.379 L -12.596,-38.765 Z"
       style="fill:#f8c300;fill-opacity:1;fill-rule:nonzero;stroke:none"
       transform="matrix(1.3333333,0,0,-1.3333333,464.1028,325.71413)"
       clip-path="url(#clipPath25)" />
    <path
       id="path26"
       d="M 0,0 12.595,-38.765 -20.38,-14.807 H 20.38 L -12.595,-38.765 Z"
       style="fill:#f8c300;fill-opacity:1;fill-rule:nonzero;stroke:none"
       transform="matrix(1.3333333,0,0,-1.3333333,442.66667,405.7148)"
       clip-path="url(#clipPath27)" />
    <path
       id="path28"
       d="M 0,0 -12.596,-38.765 20.38,-14.807 H -20.38 L 12.596,-38.765 Z"
       style="fill:#f8c300;fill-opacity:1;fill-rule:nonzero;stroke:none"
       transform="matrix(1.3333333,0,0,-1.3333333,682.66667,267.1504)"
       clip-path="url(#clipPath29)" />
    <path
       id="path30"
       d="M 0,0 -12.595,-38.765 20.38,-14.807 H -20.38 L 12.596,-38.765 Z"
       style="fill:#f8c300;fill-opacity:1;fill-rule:nonzero;stroke:none"
       transform="matrix(1.3333333,0,0,-1.3333333,741.23053,325.71413)"
       clip-path="url(#clipPath31)" />
    <path
       id="path32"
       d="M 0,0 -12.596,-38.765 20.38,-14.807 H -20.38 L 12.596,-38.765 Z"
       style="fill:#f8c300;fill-opacity:1;fill-rule:nonzero;stroke:none"
       transform="matrix(1.3333333,0,0,-1.3333333,762.66667,405.7148)"
       clip-path="url(#clipPath33)" />
  </g>
</svg>
